src/_assets/images/swup-logo-blue.svg

<svg xmlns="http://www.w3.org/2000/svg" width="996" height="429" viewBox="0 0 996 429">
  <g fill="none">
    <path fill="#2D2E82" d="M61.5 355.46C66.5 370.93 80.5 378 99 376 118 374 130.5 365.18 130.5 350.68 130.5 340.68 123.5 336.41 108 334.05L63 328.8C29 324.39 5 309.43 5 271.93 5 228.43 44 195.3 94 190 150.5 184 181.5 207.76 189 249L130 255.24C126 243.16 115.5 234.77 95 236.94 80 238.5 65.5 247 65.5 261 65.5 270 71.5 274.37 85.5 276.39L131.5 282.03C170.5 287.41 191 306.74 191 340.74 191 386.24 151.5 417.42 99.5 422.91 45 428.7 6.5 406.77 0 362L61.5 355.46zM837.73 422.44L775.73 428.99 775.73 123 837.73 116.45 837.73 134.95C847.73 121.95 869.73 108.07 893.73 105.54 958.73 98.67 995.73 148.76 995.73 211.76 995.73 274.76 958.73 332.17 893.73 339.04 869.73 341.57 847.73 332.4 837.73 321.45L837.73 422.44zM837.73 264.94C845.23 279.65 861.73 288.41 879.73 286.5 913.23 282.96 933.23 253.85 933.23 218.35 933.23 182.35 913.23 157.46 879.73 161 861.23 163 845.23 175.65 837.73 191.44L837.73 264.94zM469.82 155.31L469.82 284C469.82 299.38 466.72 311.18 460.6 319.07 454.99 326.32 446.71 330.43 435.31 331.64 423.91 332.85 415.63 330.48 410.02 324.42 403.9 317.82 400.8 306.67 400.8 291.29L400.8 162.61 340.46 169 340.46 297.62C340.46 313 337.36 324.8 331.25 332.69 325.63 339.94 317.36 344.05 305.95 345.25 294.54 346.45 286.28 344.1 280.66 338.03 274.55 331.43 271.45 320.29 271.45 304.91L271.45 176.27 211.1 182.65 211.1 315.65C211.1 345.5 220.21 369.12 237.44 383.95 253.99 398.19 277.68 404.14 305.95 401.15 332.2 398.38 354.45 388.8 370.7 373.37 386.98 385.37 409.18 390.25 435.31 387.49 463.71 384.49 487.45 373.49 503.96 355.79 521.1 337.36 530.16 311.79 530.16 281.94L530.16 148.94 469.82 155.31zM650.38 364.8C683.54 361.3 706.1 350.46 722.65 332.73 739.88 314.25 748.99 288.73 748.99 258.86L748.99 125.86 688.65 132.23 688.65 260.83C688.65 276.21 685.55 288.01 679.43 295.9 673.81 303.15 665.93 308.49 650.43 310.13 634.93 311.77 626.99 308.13 621.37 302.04 615.26 295.44 612.16 284.3 612.16 268.92L612.16 140.28 551.81 146.66 551.81 279.66C551.81 309.51 560.92 333.13 578.15 347.96 594.65 362.24 617.22 368.31 650.38 364.8z"/>
    <path fill="#FE5B6A" d="M530.6,95.07 C530.6,112.92 515.49,127.57 497.18,127.57 C479.260342,127.498748 464.751252,112.989658 464.68,95.07 C464.68,76.3 479.33,61.65 497.18,61.65 C506.0525,61.6206515 514.57007,65.1322519 520.843909,71.4060909 C527.117748,77.6799299 530.629348,86.1975003 530.6,95.07 Z"/>
    <path fill="#60DDCD" d="M614.9,33.42 C614.9,51.27 599.79,65.92 581.48,65.92 C563.568153,65.8377998 549.071174,51.3318941 549,33.42 C549,14.65 563.63,-3.162943e-15 581.48,-3.162943e-15 C590.3525,-0.0293484583 598.87007,3.48225188 605.143909,9.75609089 C611.417748,16.0299299 614.929348,24.5475003 614.9,33.42 L614.9,33.42 Z"/>
  </g>
</svg>

<?xml version="1.0" encoding="utf-8"?>
<!-- Generator: Adobe Illustrator 24.0.2, SVG Export Plug-In . SVG Version: 6.00 Build 0)  -->
<svg version="1.1" id="Layer_1" xmlns="http://www.w3.org/2000/svg" xmlns:xlink="http://www.w3.org/1999/xlink" x="0px" y="0px"
	 viewBox="0 0 996 429" style="enable-background:new 0 0 996 429;" xml:space="preserve">
<style type="text/css">
	.st0{fill:#2D2E82;}
	.st1{fill:#FE5B6A;}
	.st2{fill:#60DDCD;}
</style>
<g>
	<path class="st0" d="M61.5,355.5c5,15.5,19,22.5,37.5,20.5c19-2,31.5-10.8,31.5-25.3c0-10-7-14.3-22.5-16.6l-45-5.2
		c-34-4.4-58-19.4-58-56.9c0-43.5,39-76.6,89-81.9c56.5-6,87.5,17.8,95,59l-59,6.2c-4-12.1-14.5-20.5-35-18.3
		C80,238.5,65.5,247,65.5,261c0,9,6,13.4,20,15.4l46,5.6c39,5.4,59.5,24.7,59.5,58.7c0,45.5-39.5,76.7-91.5,82.2
		C45,428.7,6.5,406.8,0,362L61.5,355.5z M837.7,422.4l-62,6.5V123l62-6.6v18.5c10-13,32-26.9,56-29.4c65-6.9,102,43.2,102,106.2
		s-37,120.4-102,127.3c-24,2.5-46-6.6-56-17.6V422.4z M837.7,264.9c7.5,14.7,24,23.5,42,21.6c33.5-3.5,53.5-32.6,53.5-68.1
		c0-36-20-60.9-53.5-57.4c-18.5,2-34.5,14.6-42,30.4V264.9z M469.8,155.3V284c0,15.4-3.1,27.2-9.2,35.1
		c-5.6,7.2-13.9,11.4-25.3,12.6c-11.4,1.2-19.7-1.2-25.3-7.2c-6.1-6.6-9.2-17.8-9.2-33.1V162.6l-60.3,6.4v128.6
		c0,15.4-3.1,27.2-9.2,35.1c-5.6,7.2-13.9,11.4-25.3,12.6c-11.4,1.2-19.7-1.1-25.3-7.2c-6.1-6.6-9.2-17.7-9.2-33.1V176.3l-60.4,6.4
		v133c0,29.9,9.1,53.5,26.3,68.3c16.6,14.2,40.2,20.2,68.5,17.2c26.2-2.8,48.5-12.4,64.8-27.8c16.3,12,38.5,16.9,64.6,14.1
		c28.4-3,52.1-14,68.6-31.7c17.1-18.4,26.2-44,26.2-73.9v-133L469.8,155.3z M650.4,364.8c33.2-3.5,55.7-14.3,72.3-32.1
		c17.2-18.5,26.3-44,26.3-73.9v-133l-60.3,6.4v128.6c0,15.4-3.1,27.2-9.2,35.1c-5.6,7.2-13.5,12.6-29,14.2
		c-15.5,1.6-23.4-2-29.1-8.1c-6.1-6.6-9.2-17.7-9.2-33.1V140.3l-60.3,6.4v133c0,29.9,9.1,53.5,26.3,68.3
		C594.7,362.2,617.2,368.3,650.4,364.8z"/>
	<path class="st1" d="M530.6,95.1c0,17.8-15.1,32.5-33.4,32.5c-17.9-0.1-32.4-14.6-32.5-32.5c0-18.8,14.6-33.4,32.5-33.4
		c8.9,0,17.4,3.5,23.7,9.8C527.1,77.7,530.6,86.2,530.6,95.1z"/>
	<path class="st2" d="M614.9,33.4c0,17.9-15.1,32.5-33.4,32.5c-17.9-0.1-32.4-14.6-32.5-32.5C549,14.6,563.6,0,581.5,0
		c8.9,0,17.4,3.5,23.7,9.8C611.4,16,614.9,24.5,614.9,33.4L614.9,33.4z"/>
</g>
</svg>
